modules/hawcons-filled/icons/icon-27-shuttlecock.svg

<?xml version="1.0" encoding="UTF-8" standalone="no"?>
<svg width="32px" height="32px" viewBox="0 0 32 32" version="1.1" xmlns="http://www.w3.org/2000/svg" xmlns:xlink="http://www.w3.org/1999/xlink" xmlns:sketch="http://www.bohemiancoding.com/sketch/ns">
    <!-- Generator: Sketch 3.0.3 (7891) - http://www.bohemiancoding.com/sketch -->
    <title>icon 27 shuttlecock</title>
    <desc>Created with Sketch.</desc>
    <defs></defs>
    <g id="Page-1" stroke="none" stroke-width="1" fill="none" fill-rule="evenodd" sketch:type="MSPage">
        <g id="icon-27-shuttlecock" sketch:type="MSArtboardGroup" fill="#929292">
            <path d="M25,10 L25,8.5 C25,4.91014913 22.0898509,2 18.5,2 C14.9101491,2 12,4.91014913 12,8.5 L12,10 L25,10 L25,10 Z M20.0553752,11 L16.9446245,11 L14.9969419,27.5552158 L14.9130967,28.3098225 L18.5,31 L22.0869114,28.3098165 L22.0034247,27.5584206 L20.0553752,11 L18.4999999,11 L16.9446245,11 L18.4999999,11 L20.0553752,11 L20.0553752,11 Z M13.8825728,28.5292233 L11,31 L8,28 L12,11 L15.9377282,11 L14.0034247,27.4415794 L13.8825728,28.5292233 L13.8825728,28.5292233 L13.8825728,28.5292233 Z M23.0679582,11 L21.11124,11 L25.0246763,11 L29,28 L26.0185073,31 L23.153726,28.5292308 L23.0339753,27.4447842 L21.11124,11 L23.0679582,11 L23.0679582,11 Z" id="shuttlecock" sketch:type="MSShapeGroup"></path>
        </g>
    </g>
</svg>

<svg width="32" height="32" xmlns="http://www.w3.org/2000/svg"><path d="M25 10V8.5a6.5 6.5 0 1 0-13 0V10h13zm-4.945 1h-3.11l-1.948 16.555-.084.755L18.5 31l3.587-2.69-.084-.752L20.055 11h-3.11 3.11zm-6.172 17.53L11 31l-3-3 4-17h3.938l-1.935 16.442-.12 1.087zM23.068 11h-1.957 3.914L29 28l-2.981 3-2.865-2.47-.12-1.085L21.111 11h1.957z" fill="#929292" fill-rule="evenodd"/></svg>
